X: 021
T: the BURY VOLUNTEERS Hornpipe
%R: hornpipe, reel
B: J.Gray's Twenty four Country Dances (for the Year 1812) p.2 #1
S: http://www.eatmt.org.uk/gray_1812.htm 2014-8-7
Z: 2014 John Chambers <jc:trillian.mit.edu>
M: C|
L: 1/8
K: F
AB |\
cAFA cffa | gefd c2AB | cAFA cAdA | B2G2 G2AB |
cAFA cffa | gefd c2BA | Bcde fgab | a2f2 f2 :|
|: fg |\
agfa ~g2eg | Tfefd c2BA | Bcde fgab | a2g2 g2ag |
fadf cfBf | AfGf F3A | BABc defc | A2F2 F2 :|
% - - - - - - - - - - - - - - - - - - - - - - - - -
%%begintext align
%% Change sides back again. down mid: up again.
%% Allemande and swing corners.
%%endtext
% - - - - - - - - - - - - - - - - - - - - - - - - -
